static/images/404/random.svg

<svg width="212" height="137" viewBox="0 0 212 137" fill="none" xmlns="http://www.w3.org/2000/svg">
<rect width="212" height="137" rx="15" fill="white"/>
<path d="M105.36 59.76C104.427 59.76 103.533 59.88 102.68 60.12C101.827 60.3333 100.933 60.6933 100 61.2L98.64 57.48C99.6267 56.92 100.747 56.48 102 56.16C103.28 55.8133 104.587 55.64 105.92 55.64C107.52 55.64 108.84 55.8667 109.88 56.32C110.92 56.7467 111.747 57.2933 112.36 57.96C112.973 58.6267 113.4 59.36 113.64 60.16C113.88 60.96 114 61.7333 114 62.48C114 63.3867 113.827 64.2 113.48 64.92C113.16 65.64 112.747 66.3067 112.24 66.92C111.733 67.5333 111.187 68.12 110.6 68.68C110.013 69.2133 109.467 69.7733 108.96 70.36C108.453 70.92 108.027 71.52 107.68 72.16C107.36 72.8 107.2 73.52 107.2 74.32C107.2 74.4533 107.2 74.6133 107.2 74.8C107.2 74.96 107.213 75.12 107.24 75.28H103.08C103.027 75.0133 102.987 74.7333 102.96 74.44C102.933 74.12 102.92 73.8267 102.92 73.56C102.92 72.68 103.067 71.8933 103.36 71.2C103.653 70.5067 104.027 69.8667 104.48 69.28C104.933 68.6933 105.413 68.1467 105.92 67.64C106.453 67.1333 106.947 66.6267 107.4 66.12C107.853 65.6133 108.227 65.0933 108.52 64.56C108.813 64.0267 108.96 63.44 108.96 62.8C108.96 61.92 108.653 61.2 108.04 60.64C107.453 60.0533 106.56 59.76 105.36 59.76ZM108.48 81.36C108.48 82.2933 108.173 83.0533 107.56 83.64C106.947 84.2267 106.187 84.52 105.28 84.52C104.4 84.52 103.64 84.2267 103 83.64C102.387 83.0533 102.08 82.2933 102.08 81.36C102.08 80.4267 102.387 79.6667 103 79.08C103.64 78.4667 104.4 78.16 105.28 78.16C106.187 78.16 106.947 78.4667 107.56 79.08C108.173 79.6667 108.48 80.4267 108.48 81.36Z" fill="#127800" fill-opacity="0.3"/>
</svg>

<svg width="212" height="137" fill="none" xmlns="http://www.w3.org/2000/svg"><rect width="212" height="137" rx="15" fill="#fff"/><path d="M105.36 59.76c-.933 0-1.827.12-2.68.36-.853.213-1.747.573-2.68 1.08l-1.36-3.72c.987-.56 2.107-1 3.36-1.32a14.93 14.93 0 013.92-.52c1.6 0 2.92.227 3.96.68 1.04.427 1.867.973 2.48 1.64.613.667 1.04 1.4 1.28 2.2.24.8.36 1.573.36 2.32 0 .907-.173 1.72-.52 2.44a8.62 8.62 0 01-1.24 2c-.507.613-1.053 1.2-1.64 1.76a19.45 19.45 0 00-1.64 1.68 9.232 9.232 0 00-1.28 1.8c-.32.64-.48 1.36-.48 2.16v.48c0 .16.013.32.04.48h-4.16a8.138 8.138 0 01-.12-.84c-.027-.32-.04-.613-.04-.88 0-.88.147-1.667.44-2.36a8.617 8.617 0 011.12-1.92c.453-.587.933-1.133 1.44-1.64a26.175 26.175 0 001.48-1.52 8.47 8.47 0 001.12-1.56c.293-.533.44-1.12.44-1.76 0-.88-.307-1.6-.92-2.16-.587-.587-1.48-.88-2.68-.88zm3.12 21.6c0 .933-.307 1.693-.92 2.28-.613.587-1.373.88-2.28.88a3.26 3.26 0 01-2.28-.88c-.613-.587-.92-1.347-.92-2.28 0-.933.307-1.693.92-2.28.64-.613 1.4-.92 2.28-.92.907 0 1.667.307 2.28.92.613.587.92 1.347.92 2.28z" fill="#127800" fill-opacity=".3"/></svg>
